usr/share/icons/biglinux-icons-material/scalable/apps/office-calendar.svg

<?xml version="1.0" encoding="UTF-8" standalone="no"?>
<svg
   width="24"
   height="24"
   viewBox="0 0 24 24"
   fill="none"
   version="1.1"
   id="svg5"
   sodipodi:docname="starcal2.svg"
   inkscape:version="1.3 (0e150ed6c4, 2023-07-21)"
   xmlns:inkscape="http://www.inkscape.org/namespaces/inkscape"
   xmlns:sodipodi="http://sodipodi.sourceforge.net/DTD/sodipodi-0.dtd"
   xmlns="http://www.w3.org/2000/svg"
   xmlns:svg="http://www.w3.org/2000/svg">
  <sodipodi:namedview
     id="namedview5"
     pagecolor="#ffffff"
     bordercolor="#000000"
     borderopacity="0.25"
     inkscape:showpageshadow="2"
     inkscape:pageopacity="0.0"
     inkscape:pagecheckerboard="0"
     inkscape:deskcolor="#d1d1d1"
     inkscape:zoom="33.791667"
     inkscape:cx="11.215783"
     inkscape:cy="5.7854501"
     inkscape:window-width="2560"
     inkscape:window-height="998"
     inkscape:window-x="0"
     inkscape:window-y="0"
     inkscape:window-maximized="1"
     inkscape:current-layer="svg5" />
  <g
     id="g5"
     transform="matrix(0.91666673,0,0,0.91666673,0.99999709,0.99999995)"
     style="stroke-width:1.09091">
    <path
       fill-rule="evenodd"
       clip-rule="evenodd"
       d="M 9.3775,0.123915 C 9.50824,0.125307 9.6332,0.108652 9.75239,0.073954 11.3187,-0.0286516 12.8849,-0.0244899 14.451,0.0864444 c 1.42,0.1106416 2.7946,0.4187386 4.1238,0.9242856 2.2098,0.90975 3.7218,2.4877 4.5361,4.73384 0.4657,1.35233 0.7407,2.74293 0.8248,4.17177 0.1164,1.79426 0.0748,3.58456 -0.125,5.37086 -0.1495,1.2555 -0.4744,2.4629 -0.9747,3.6222 -0.9279,2.01 -2.4316,3.3964 -4.5111,4.1593 -1.6852,0.5694 -3.418,0.8691 -5.1985,0.8993 C 11.1236,24.0721 9.14087,23.9222 7.17815,23.5183 3.56552,22.7136 1.337,20.5111 0.49263,16.9109 0.134306,15.2903 -0.0281463,13.6499 0.00527377,11.9897 -0.0347169,10.2244 0.152728,8.4841 0.567607,6.76878 1.45278,3.40263 3.58964,1.31674 6.97821,0.511116 7.7678,0.318078 8.56756,0.18901 9.3775,0.123915 Z"
       fill="url(#paint0_radial_24_2)"
       id="path1"
       style="fill:url(#paint0_radial_24_2);stroke-width:1.09091" />
    <path
       opacity="0.9"
       fill-rule="evenodd"
       clip-rule="evenodd"
       d="M 0.157992,9 C 0.252306,8.25162 0.388844,7.50788 0.567607,6.76878 0.966231,5.25288 1.6187,3.99662 2.52502,3 H 21.4818 c 0.7,0.76461 1.243,1.67946 1.6291,2.74457 C 23.4765,6.80613 23.7245,7.89128 23.855,9 Z"
       fill="#fafafa"
       id="path2"
       style="stroke-width:1.19008" />
    <path
       d="M 9.7579,20 12.613,14.3466 V 14.304 H 9.26074 V 12.7273 H 14.6585 V 14.304 L 11.7892,20 Z"
       fill="#ffffff"
       id="path3"
       style="stroke-width:1.19008" />
    <path
       d="m 7.99072,4.74091 h 0.8478 l 0.58317,1.42116 h 0.0294 L 10.0343,4.74091 h 0.8478 V 7.25 H 10.2156 V 5.79943 H 10.196 L 9.63731,7.2304 H 9.23547 L 8.6768,5.78963 H 8.6572 V 7.25 H 7.99072 Z M 11.8567,7.25 h -0.7351 l 0.8282,-2.50909 h 0.9311 L 13.7091,7.25 H 12.974 L 12.4251,5.43189 H 12.4055 Z M 11.7194,6.26009 h 1.382 v 0.50965 h -1.382 z m 1.8724,-1.51918 h 0.7596 l 0.49,1.01932 h 0.0196 l 0.4901,-1.01932 h 0.7596 l -0.9213,1.7201 V 7.25 H 14.5131 V 6.46101 Z"
       fill="#586cd8"
       id="path4"
       style="stroke-width:1.19008" />
  </g>
  <defs
     id="defs5">
    <radialGradient
       id="paint0_radial_24_2"
       cx="0"
       cy="0"
       r="1"
       gradientUnits="userSpaceOnUse"
       gradientTransform="matrix(0,24,-24,0,12,0)">
      <stop
         stop-color="#7286F2"
         id="stop4" />
      <stop
         offset="1"
         stop-color="#4A5ECA"
         id="stop5" />
    </radialGradient>
  </defs>
</svg>

<svg xmlns="http://www.w3.org/2000/svg" width="24" height="24" fill="none"><g style="stroke-width:1.09091"><path fill="url(#a)" fill-rule="evenodd" d="M9.377.124c.131.001.256-.015.375-.05a34.502 34.502 0 0 1 4.699.012c1.42.111 2.795.42 4.124.925 2.21.91 3.722 2.487 4.536 4.734.466 1.352.74 2.742.825 4.171a30.475 30.475 0 0 1-.125 5.371 12.962 12.962 0 0 1-.975 3.622c-.928 2.01-2.432 3.397-4.511 4.16-1.685.57-3.418.869-5.199.899a23.372 23.372 0 0 1-5.948-.45c-3.612-.804-5.841-3.007-6.685-6.607a20.778 20.778 0 0 1-.488-4.921c-.04-1.766.148-3.506.563-5.221C1.453 3.403 3.59 1.317 6.978.51c.79-.193 1.59-.322 2.4-.387Z" clip-rule="evenodd" style="fill:url(#a);stroke-width:1.09091" transform="matrix(.91667 0 0 .91667 1 1)"/><path fill="#fafafa" fill-rule="evenodd" d="M.158 9c.094-.748.23-1.492.41-2.231C.966 5.253 1.618 3.997 2.525 3h18.957c.7.765 1.243 1.68 1.629 2.745.366 1.061.613 2.146.744 3.255Z" clip-rule="evenodd" opacity=".9" style="stroke-width:1.19008" transform="matrix(.91667 0 0 .91667 1 1)"/><path fill="#fff" d="m9.758 20 2.855-5.653v-.043H9.261v-1.577h5.398v1.577L11.788 20Z" style="stroke-width:1.19008" transform="matrix(.91667 0 0 .91667 1 1)"/><path fill="#586cd8" d="M7.99 4.74h.849l.583 1.422h.03l.582-1.421h.848V7.25h-.666V5.8h-.02l-.559 1.43h-.402l-.558-1.44h-.02v1.46h-.666Zm3.867 2.51h-.735l.828-2.51h.93l.83 2.51h-.736l-.549-1.818h-.02Zm-.138-.99h1.382v.51H11.72zm1.873-1.52h.76l.49 1.02h.019l.49-1.02h.76l-.922 1.721v.789h-.676v-.789Z" style="stroke-width:1.19008" transform="matrix(.91667 0 0 .91667 1 1)"/></g><defs><radialGradient id="a" cx="0" cy="0" r="1" gradientTransform="matrix(0 24 -24 0 12 0)" gradientUnits="userSpaceOnUse"><stop stop-color="#7286F2"/><stop offset="1" stop-color="#4A5ECA"/></radialGradient></defs></svg>
